X: 1
T: Rocking The Cradle
R: jig
M: 6/8
L: 1/8
K: Amix
|: cee dee | cee dcB | cee dee | (3AAA A cBA |
cee dee | cee dcB | (3AAA c BcB | ABA AAA :|
|: acc ecc | acc dcB | acc ecc |(3AAA A cBA |
acc ecc | acc dcB |(3AAA c BcB | A (3cBA AAA :|
